X:458
T: JETZT GEH ICH ANS BRUENNELE
N: F0861
O: Europa, Mitteleuropa, Deutschland
R: erzaehlendes Volks - Lied, Ballade, Liebe
M: 3/8
L: 1/16
K: G
D2 | G3FGA | B3cB2 |
BAA2AB | G2z2
G2 | B3ABc | d3ed2 |
dcc2cd | B2z2
d2 | dcc2cc | B2dcB2 |
A2A2A2 | B2z2
d2 | dcc2cc | B2dcB2 |
A2A2A2 | B2z2

@@@ Tune index: 5889
